; G-Code generated by Simplify3D(R) Version 4.0.1
; Aug 5, 2018 at 10:38:01 AM
; Settings Summary
;   processName,Process1
;   applyToModels,Rear dashcam mount
;   profileName,0.8mm fine (modified)
;   profileVersion,2017-08-22 14:55:28
;   baseProfile,
;   printMaterial,
;   printQuality,
;   printExtruders,
;   extruderName,Left extruder,Right extruder
;   extruderToolheadNumber,0,1
;   extruderDiameter,0.4,0.8
;   extruderAutoWidth,0,0
;   extruderWidth,0.3,0.7
;   extrusionMultiplier,1.2,1.2
;   extruderUseRetract,1,1
;   extruderRetractionDistance,2,2
;   extruderExtraRestartDistance,2,2
;   extruderRetractionZLift,1,1
;   extruderRetractionSpeed,2400,2400
;   extruderUseCoasting,0,0
;   extruderCoastingDistance,0.2,0.2
;   extruderUseWipe,0,0
;   extruderWipeDistance,5,5
;   primaryExtruder,1
;   layerHeight,0.2
;   topSolidLayers,3
;   bottomSolidLayers,3
;   perimeterOutlines,2
;   printPerimetersInsideOut,1
;   startPointOption,2
;   startPointOriginX,0
;   startPointOriginY,0
;   sequentialIslands,0
;   spiralVaseMode,0
;   firstLayerHeightPercentage,80
;   firstLayerWidthPercentage,100
;   firstLayerUnderspeed,0.5
;   useRaft,0
;   raftExtruder,0
;   raftTopLayers,2
;   raftBaseLayers,2
;   raftOffset,3
;   raftSeparationDistance,0.14
;   raftTopInfill,100
;   aboveRaftSpeedMultiplier,0.3
;   useSkirt,1
;   skirtExtruder,1
;   skirtLayers,1
;   skirtOutlines,1
;   skirtOffset,4
;   usePrimePillar,0
;   primePillarExtruder,999
;   primePillarWidth,12
;   primePillarLocation,7
;   primePillarSpeedMultiplier,1
;   useOozeShield,0
;   oozeShieldExtruder,999
;   oozeShieldOffset,2
;   oozeShieldOutlines,1
;   oozeShieldSidewallShape,1
;   oozeShieldSidewallAngle,30
;   oozeShieldSpeedMultiplier,1
;   infillExtruder,1
;   internalInfillPattern,Rectilinear
;   externalInfillPattern,Rectilinear
;   infillPercentage,25
;   outlineOverlapPercentage,30
;   infillExtrusionWidthPercentage,100
;   minInfillLength,5
;   infillLayerInterval,1
;   internalInfillAngles,45,-45
;   overlapInternalInfillAngles,0
;   externalInfillAngles,45,-45
;   generateSupport,0
;   supportExtruder,1
;   supportInfillPercentage,40
;   supportExtraInflation,0
;   supportBaseLayers,0
;   denseSupportExtruder,1
;   denseSupportLayers,0
;   denseSupportInfillPercentage,70
;   supportLayerInterval,1
;   supportHorizontalPartOffset,0.3
;   supportUpperSeparationLayers,1
;   supportLowerSeparationLayers,1
;   supportType,0
;   supportGridSpacing,3
;   maxOverhangAngle,45
;   supportAngles,45
;   temperatureName,Extruder 1 Temperature,Extruder 2 Temperature,Heated Bed
;   temperatureNumber,0,1,0
;   temperatureSetpointCount,1,1,1
;   temperatureSetpointLayers,1,1,1
;   temperatureSetpointTemperatures,190,190,60
;   temperatureStabilizeAtStartup,0,1,0
;   temperatureHeatedBed,0,0,1
;   temperatureRelayBetweenLayers,0,0,0
;   temperatureRelayBetweenLoops,0,0,0
;   fanLayers,1,2
;   fanSpeeds,0,100
;   blipFanToFullPower,0
;   adjustSpeedForCooling,1
;   minSpeedLayerTime,15
;   minCoolingSpeedSlowdown,20
;   increaseFanForCooling,0
;   minFanLayerTime,45
;   maxCoolingFanSpeed,100
;   increaseFanForBridging,0
;   bridgingFanSpeed,100
;   use5D,1
;   relativeEdistances,0
;   allowEaxisZeroing,1
;   independentExtruderAxes,0
;   includeM10123,0
;   stickySupport,1
;   applyToolheadOffsets,0
;   gcodeXoffset,0
;   gcodeYoffset,0
;   gcodeZoffset,0
;   overrideMachineDefinition,1
;   machineTypeOverride,0
;   strokeXoverride,220
;   strokeYoverride,200
;   strokeZoverride,150
;   originOffsetXoverride,24
;   originOffsetYoverride,-22
;   originOffsetZoverride,0
;   homeXdirOverride,-1
;   homeYdirOverride,-1
;   homeZdirOverride,1
;   flipXoverride,1
;   flipYoverride,-1
;   flipZoverride,1
;   toolheadOffsets,-27,0|28,22|0,0|0,0|0,0|0,0
;   overrideFirmwareConfiguration,1
;   firmwareTypeOverride,RepRap (Marlin/Repetier/Sprinter)
;   GPXconfigOverride,r2
;   baudRateOverride,250000
;   overridePrinterModels,0
;   printerModelsOverride
;   startingGcode,M999     ;reset temperature,G28 ; home all axes,G29 ; z min,
;   layerChangeGcode,
;   retractionGcode,
;   toolChangeGcode,
;   endingGcode,M104 S0 ; turn off extruder,M140 S0 ; turn off bed,G28 X0 ; home X axis,G28 Y0 ; home Y axis,M84 ; disable motors
;   exportFileFormat,gcode
;   celebration,0
;   celebrationSong,Random Song
;   postProcessing,
;   defaultSpeed,2400
;   outlineUnderspeed,0.8
;   solidInfillUnderspeed,0.8
;   supportUnderspeed,1
;   rapidXYspeed,4800
;   rapidZspeed,1000
;   minBridgingArea,5
;   bridgingExtraInflation,3
;   bridgingExtrusionMultiplier,1.2
;   bridgingSpeedMultiplier,0.6
;   useFixedBridgingAngle,0
;   fixedBridgingAngle,0
;   applyBridgingToPerimeters,0
;   filamentDiameters,1.75|1.75|1.75|1.75|1.75|1.75
;   filamentPricesPerKg,19.87|19.87|19.87|19.87|19.87|19.87
;   filamentDensities,1.25|1.25|1.25|1.25|1.25|1.25
;   useMinPrintHeight,0
;   minPrintHeight,0
;   useMaxPrintHeight,0
;   maxPrintHeight,0
;   useDiaphragm,0
;   diaphragmLayerInterval,20
;   robustSlicing,1
;   mergeAllIntoSolid,0
;   onlyRetractWhenCrossingOutline,1
;   retractBetweenLayers,0
;   useRetractionMinTravel,1
;   retractionMinTravel,1.5
;   retractWhileWiping,0
;   onlyWipeOutlines,1
;   avoidCrossingOutline,1
;   maxMovementDetourFactor,3
;   toolChangeRetractionDistance,12
;   toolChangeExtraRestartDistance,-0.5
;   toolChangeRetractionSpeed,600
;   externalThinWallType,0
;   internalThinWallType,1
;   thinWallAllowedOverlapPercentage,50
;   singleExtrusionMinLength,1
;   singleExtrusionMinPrintingWidthPercentage,50
;   singleExtrusionMaxPrintingWidthPercentage,200
;   singleExtrusionEndpointExtension,0.2
;   horizontalSizeCompensation,0
G90
M82
M106 S0
M140 S60
M104 S190 T0
M104 S190 T1
M109 S190 T1
M999     ;reset temperature
G28 ; home all axes
G29 ; z min
G92 E0
G1 E-2.0000 F2400
G1 Z1.160 F1000
; process Process1
; layer 1, Z = 0.160
T1
; tool H0.200 W0.700
; skirt
G1 X9.274 Y91.730 F4800
G1 Z0.160 F1000
G1 E2.0000 F720
G92 E0
G1 X162.726 Y91.730 E10.7181 F1200
G1 X162.855 Y91.783 E10.7278
G1 X165.297 Y94.225 E10.9690
G1 X165.350 Y94.354 E10.9787
G1 X165.350 Y102.726 E11.5636
G1 X165.297 Y102.855 E11.5733
G1 X162.855 Y105.297 E11.8145
G1 X162.726 Y105.350 E11.8242
G1 X82.350 Y105.350 E17.4382
G1 X82.350 Y149.726 E20.5377
G1 X82.297 Y149.855 E20.5474
G1 X79.855 Y152.297 E20.7886
G1 X79.726 Y152.350 E20.7983
G1 X42.274 Y152.350 E23.4143
G1 X42.145 Y152.297 E23.4240
G1 X39.703 Y149.855 E23.6652
G1 X39.650 Y149.726 E23.6749
G1 X39.650 Y105.350 E26.7745
G1 X9.274 Y105.350 E28.8961
G1 X9.145 Y105.297 E28.9059
G1 X6.703 Y102.855 E29.1470
G1 X6.650 Y102.726 E29.1568
G1 X6.650 Y94.354 E29.7416
G1 X6.703 Y94.225 E29.7513
G1 X9.145 Y91.783 E29.9925
G1 X9.274 Y91.730 E30.0022
G92 E0
G1 E-2.0000 F2400
G1 Z1.160 F1000
; inner perimeter
G1 X11.343 Y96.423 F4800
G1 X11.686 Y96.423 F4800
G1 X12.050 Y97.130 F4800
G1 Z0.160 F1000
G1 E2.0000 F2400
G92 E0
G1 X159.950 Y97.130 E10.3303 F1080
G1 X159.950 Y99.950 E10.5272
G1 X76.950 Y99.950 E16.3245
G1 X76.950 Y146.950 E19.6072
G1 X45.050 Y146.950 E21.8353
G1 X45.050 Y99.950 E25.1181
G1 X12.050 Y99.950 E27.4230
G1 X12.050 Y97.130 E27.6200
; outer perimeter
G1 X11.350 Y96.430 F4800
G92 E0
G1 X160.650 Y96.430 E10.4281 F960
G1 X160.650 Y100.650 E10.7228
G1 X77.650 Y100.650 E16.5200
G1 X77.650 Y147.650 E19.8028
G1 X44.350 Y147.650 E22.1287
G1 X44.350 Y100.650 E25.4115
G1 X11.350 Y100.650 E27.7164
G1 X11.350 Y96.430 E28.0112
; solid layer
G1 X12.540 Y99.027 F4800
G92 E0
G1 X12.973 Y99.460 E0.0427 F960
G1 X13.963 Y99.460 E0.1119
G1 X12.540 Y98.037 E0.2524
G1 X12.540 Y97.620 E0.2815
G1 X13.112 Y97.620 E0.3215
G1 X14.952 Y99.460 E0.5033
G1 X15.942 Y99.460 E0.5724
G1 X14.102 Y97.620 E0.7542
G1 X15.092 Y97.620 E0.8233
G1 X16.932 Y99.460 E1.0051
G1 X17.922 Y99.460 E1.0742
G1 X16.082 Y97.620 E1.2560
G1 X17.072 Y97.620 E1.3251
G1 X18.912 Y99.460 E1.5069
G1 X19.902 Y99.460 E1.5760
G1 X18.062 Y97.620 E1.7578
G1 X19.052 Y97.620 E1.8269
G1 X20.892 Y99.460 E2.0087
G1 X21.882 Y99.460 E2.0778
G1 X20.042 Y97.620 E2.2595
G1 X21.032 Y97.620 E2.3287
G1 X22.872 Y99.460 E2.5104
G1 X23.862 Y99.460 E2.5796
G1 X22.022 Y97.620 E2.7613
G1 X23.012 Y97.620 E2.8305
G1 X24.852 Y99.460 E3.0122
G1 X25.842 Y99.460 E3.0814
G1 X24.002 Y97.620 E3.2631
G1 X24.992 Y97.620 E3.3323
G1 X26.832 Y99.460 E3.5140
G1 X27.822 Y99.460 E3.5832
G1 X25.982 Y97.620 E3.7649
G1 X26.972 Y97.620 E3.8341
G1 X28.812 Y99.460 E4.0158
G1 X29.802 Y99.460 E4.0850
G1 X27.962 Y97.620 E4.2667
G1 X28.952 Y97.620 E4.3359
G1 X30.792 Y99.460 E4.5176
G1 X31.782 Y99.460 E4.5867
G1 X29.942 Y97.620 E4.7685
G1 X30.932 Y97.620 E4.8376
G1 X32.772 Y99.460 E5.0194
G1 X33.762 Y99.460 E5.0885
G1 X31.922 Y97.620 E5.2703
G1 X32.911 Y97.620 E5.3394
G1 X34.751 Y99.460 E5.5212
G1 X35.741 Y99.460 E5.5903
G1 X33.901 Y97.620 E5.7721
G1 X34.891 Y97.620 E5.8412
G1 X36.731 Y99.460 E6.0230
G1 X37.721 Y99.460 E6.0921
G1 X35.881 Y97.620 E6.2739
G1 X36.871 Y97.620 E6.3430
G1 X38.711 Y99.460 E6.5248
G1 X39.701 Y99.460 E6.5939
G1 X37.861 Y97.620 E6.7757
G1 X38.851 Y97.620 E6.8448
G1 X40.691 Y99.460 E7.0266
G1 X41.681 Y99.460 E7.0957
G1 X39.841 Y97.620 E7.2774
G1 X40.831 Y97.620 E7.3466
G1 X42.671 Y99.460 E7.5283
G1 X43.661 Y99.460 E7.5975
G1 X41.821 Y97.620 E7.7792
G1 X42.811 Y97.620 E7.8484
G1 X44.651 Y99.460 E8.0301
G1 X45.540 Y99.460 E8.0922
G1 X45.540 Y100.349 E8.1543
G1 X76.460 Y131.269 E11.2085
G1 X76.460 Y130.279 E11.2777
G1 X43.801 Y97.620 E14.5037
G1 X44.791 Y97.620 E14.5728
G1 X76.460 Y129.289 E17.7010
G1 X76.460 Y128.299 E17.7701
G1 X45.781 Y97.620 E20.8006
G1 X46.771 Y97.620 E20.8697
G1 X76.460 Y127.309 E23.8023
G1 X76.460 Y126.319 E23.8715
G1 X47.761 Y97.620 E26.7063
G1 X48.751 Y97.620 E26.7755
G1 X76.460 Y125.329 E29.5125
G1 X76.460 Y124.339 E29.5817
G1 X49.741 Y97.620 E32.2209
G1 X50.731 Y97.620 E32.2901
G1 X76.460 Y123.349 E34.8316
G1 X76.460 Y122.359 E34.9007
G1 X51.721 Y97.620 E37.3444
G1 X52.710 Y97.620 E37.4136
G1 X76.460 Y121.370 E39.7595
G1 X76.460 Y120.380 E39.8286
G1 X53.700 Y97.620 E42.0768
G1 X54.690 Y97.620 E42.1459
G1 X76.460 Y119.390 E44.2963
G1 X76.460 Y118.400 E44.3654
G1 X55.680 Y97.620 E46.4180
G1 X56.670 Y97.620 E46.4871
G1 X76.460 Y117.410 E48.4419
G1 X76.460 Y116.420 E48.5111
G1 X57.660 Y97.620 E50.3681
G1 X58.650 Y97.620 E50.4372
G1 X76.460 Y115.430 E52.1964
G1 X76.460 Y114.440 E52.2656
G1 X59.640 Y97.620 E53.9270
G1 X60.630 Y97.620 E53.9961
G1 X76.460 Y113.450 E55.5598
G1 X76.460 Y112.460 E55.6289
G1 X61.620 Y97.620 E57.0948
G1 X62.610 Y97.620 E57.1639
G1 X76.460 Y111.470 E58.5320
G1 X76.460 Y110.480 E58.6011
G1 X63.600 Y97.620 E59.8714
G1 X64.590 Y97.620 E59.9406
G1 X76.460 Y109.490 E61.1131
G1 X76.460 Y108.500 E61.1822
G1 X65.580 Y97.620 E62.2569
G1 X66.570 Y97.620 E62.3261
G1 X76.460 Y107.510 E63.3030
G1 X76.460 Y106.520 E63.3722
G1 X67.560 Y97.620 E64.2513
G1 X68.550 Y97.620 E64.3204
G1 X76.460 Y105.530 E65.1018
G1 X76.460 Y104.540 E65.1710
G1 X69.540 Y97.620 E65.8545
G1 X70.530 Y97.620 E65.9237
G1 X76.460 Y103.550 E66.5095
G1 X76.460 Y102.560 E66.5786
G1 X71.520 Y97.620 E67.0666
G1 X72.509 Y97.620 E67.1358
G1 X76.460 Y101.571 E67.5260
G1 X76.460 Y100.581 E67.5951
G1 X73.499 Y97.620 E67.8876
G1 X74.489 Y97.620 E67.9567
G1 X76.460 Y99.591 E68.1514
G1 X76.460 Y99.460 E68.1605
G1 X77.319 Y99.460 E68.2205
G1 X75.479 Y97.620 E68.4023
G1 X76.469 Y97.620 E68.4714
G1 X78.309 Y99.460 E68.6532
G1 X79.299 Y99.460 E68.7223
G1 X77.459 Y97.620 E68.9041
G1 X78.449 Y97.620 E68.9732
G1 X80.289 Y99.460 E69.1550
G1 X81.279 Y99.460 E69.2241
G1 X79.439 Y97.620 E69.4059
G1 X80.429 Y97.620 E69.4750
G1 X82.269 Y99.460 E69.6567
G1 X83.259 Y99.460 E69.7259
G1 X81.419 Y97.620 E69.9076
G1 X82.409 Y97.620 E69.9768
G1 X84.249 Y99.460 E70.1585
G1 X85.239 Y99.460 E70.2277
G1 X83.399 Y97.620 E70.4094
G1 X84.389 Y97.620 E70.4786
G1 X86.229 Y99.460 E70.6603
G1 X87.219 Y99.460 E70.7295
G1 X85.379 Y97.620 E70.9112
G1 X86.369 Y97.620 E70.9804
G1 X88.209 Y99.460 E71.1621
G1 X89.199 Y99.460 E71.2313
G1 X87.359 Y97.620 E71.4130
G1 X88.349 Y97.620 E71.4822
G1 X90.189 Y99.460 E71.6639
G1 X91.179 Y99.460 E71.7331
G1 X89.339 Y97.620 E71.9148
G1 X90.329 Y97.620 E71.9839
G1 X92.169 Y99.460 E72.1657
G1 X93.158 Y99.460 E72.2348
G1 X91.318 Y97.620 E72.4166
G1 X92.308 Y97.620 E72.4857
G1 X94.148 Y99.460 E72.6675
G1 X95.138 Y99.460 E72.7366
G1 X93.298 Y97.620 E72.9184
G1 X94.288 Y97.620 E72.9875
G1 X96.128 Y99.460 E73.1693
G1 X97.118 Y99.460 E73.2384
G1 X95.278 Y97.620 E73.4202
G1 X96.268 Y97.620 E73.4893
G1 X98.108 Y99.460 E73.6711
G1 X99.098 Y99.460 E73.7402
G1 X97.258 Y97.620 E73.9220
G1 X98.248 Y97.620 E73.9911
G1 X100.088 Y99.460 E74.1729
G1 X101.078 Y99.460 E74.2420
G1 X99.238 Y97.620 E74.4238
G1 X100.228 Y97.620 E74.4929
G1 X102.068 Y99.460 E74.6746
G1 X103.058 Y99.460 E74.7438
G1 X101.218 Y97.620 E74.9255
G1 X102.208 Y97.620 E74.9947
G1 X104.048 Y99.460 E75.1764
G1 X105.038 Y99.460 E75.2456
G1 X103.198 Y97.620 E75.4273
G1 X104.188 Y97.620 E75.4965
G1 X106.028 Y99.460 E75.6782
G1 X107.018 Y99.460 E75.7474
G1 X105.178 Y97.620 E75.9291
G1 X106.168 Y97.620 E75.9983
G1 X108.008 Y99.460 E76.1800
G1 X108.998 Y99.460 E76.2492
G1 X107.158 Y97.620 E76.4309
G1 X108.148 Y97.620 E76.5001
G1 X109.988 Y99.460 E76.6818
G1 X110.978 Y99.460 E76.7510
G1 X109.138 Y97.620 E76.9327
G1 X110.128 Y97.620 E77.0018
G1 X111.968 Y99.460 E77.1836
G1 X112.957 Y99.460 E77.2527
G1 X111.117 Y97.620 E77.4345
G1 X112.107 Y97.620 E77.5036
G1 X113.947 Y99.460 E77.6854
G1 X114.937 Y99.460 E77.7545
G1 X113.097 Y97.620 E77.9363
G1 X114.087 Y97.620 E78.0054
G1 X115.927 Y99.460 E78.1872
G1 X116.917 Y99.460 E78.2563
G1 X115.077 Y97.620 E78.4381
G1 X116.067 Y97.620 E78.5072
G1 X117.907 Y99.460 E78.6890
G1 X118.897 Y99.460 E78.7581
G1 X117.057 Y97.620 E78.9399
G1 X118.047 Y97.620 E79.0090
G1 X119.887 Y99.460 E79.1908
G1 X120.877 Y99.460 E79.2599
G1 X119.037 Y97.620 E79.4417
G1 X120.027 Y97.620 E79.5108
G1 X121.867 Y99.460 E79.6925
G1 X122.857 Y99.460 E79.7617
G1 X121.017 Y97.620 E79.9434
G1 X122.007 Y97.620 E80.0126
G1 X123.847 Y99.460 E80.1943
G1 X124.837 Y99.460 E80.2635
G1 X122.997 Y97.620 E80.4452
G1 X123.987 Y97.620 E80.5144
G1 X125.827 Y99.460 E80.6961
G1 X126.817 Y99.460 E80.7653
G1 X124.977 Y97.620 E80.9470
G1 X125.967 Y97.620 E81.0162
G1 X127.807 Y99.460 E81.1979
G1 X128.797 Y99.460 E81.2671
G1 X126.957 Y97.620 E81.4488
G1 X127.947 Y97.620 E81.5180
G1 X129.787 Y99.460 E81.6997
G1 X130.777 Y99.460 E81.7689
G1 X128.937 Y97.620 E81.9506
G1 X129.927 Y97.620 E82.0197
G1 X131.767 Y99.460 E82.2015
G1 X132.756 Y99.460 E82.2706
G1 X130.916 Y97.620 E82.4524
G1 X131.906 Y97.620 E82.5215
G1 X133.746 Y99.460 E82.7033
G1 X134.736 Y99.460 E82.7724
G1 X132.896 Y97.620 E82.9542
G1 X133.886 Y97.620 E83.0233
G1 X135.726 Y99.460 E83.2051
G1 X136.716 Y99.460 E83.2742
G1 X134.876 Y97.620 E83.4560
G1 X135.866 Y97.620 E83.5251
G1 X137.706 Y99.460 E83.7069
G1 X138.696 Y99.460 E83.7760
G1 X136.856 Y97.620 E83.9578
G1 X137.846 Y97.620 E84.0269
G1 X139.686 Y99.460 E84.2087
G1 X140.676 Y99.460 E84.2778
G1 X138.836 Y97.620 E84.4596
G1 X139.826 Y97.620 E84.5287
G1 X141.666 Y99.460 E84.7104
G1 X142.656 Y99.460 E84.7796
G1 X140.816 Y97.620 E84.9613
G1 X141.806 Y97.620 E85.0305
G1 X143.646 Y99.460 E85.2122
G1 X144.636 Y99.460 E85.2814
G1 X142.796 Y97.620 E85.4631
G1 X143.786 Y97.620 E85.5323
G1 X145.626 Y99.460 E85.7140
G1 X146.616 Y99.460 E85.7832
G1 X144.776 Y97.620 E85.9649
G1 X145.766 Y97.620 E86.0341
G1 X147.606 Y99.460 E86.2158
G1 X148.596 Y99.460 E86.2850
G1 X146.756 Y97.620 E86.4667
G1 X147.746 Y97.620 E86.5359
G1 X149.586 Y99.460 E86.7176
